libs/ui/packages/crypto-icons/src/svg/AION.svg

<svg width="24" height="24" viewBox="0 0 24 24" fill="none">
<path d="M11.9557 17.3479C8.98798 17.3479 6.57373 14.9486 6.57373 12.0004C6.57373 9.05136 8.98873 6.65286 11.9557 6.65286C14.9235 6.65286 17.3377 9.05136 17.3377 12.0004C17.3377 14.9486 14.9235 17.3479 11.9557 17.3479ZM11.9557 7.69986C9.56998 7.69986 7.62823 9.62886 7.62823 12.0004C7.62823 14.3711 9.56998 16.3001 11.9557 16.3001C14.3422 16.3001 16.2832 14.3711 16.2832 12.0004C16.2832 9.62886 14.3422 7.69986 11.9557 7.69986ZM15.7245 5.88861C14.5891 5.19727 13.285 4.83239 11.9557 4.83411C10.7321 4.83361 9.52826 5.1427 8.45623 5.73261L7.94323 4.81761C9.17219 4.14046 10.5526 3.78543 11.9557 3.78561C13.4857 3.78561 14.9797 4.20411 16.2765 4.99611L15.7245 5.88861ZM17.2957 18.2711L16.614 17.4709C17.4134 16.8009 18.0564 15.964 18.4976 15.0188C18.9388 14.0737 19.1675 13.0434 19.1677 12.0004H20.2222C20.2222 14.4199 19.1557 16.7051 17.2957 18.2704V18.2711ZM11.9557 20.2136C10.038 20.2136 8.16898 19.5461 6.69373 18.3349L7.36573 17.5279C8.66079 18.5874 10.2825 19.1664 11.9557 19.1666C13.1257 19.1666 14.2417 18.8966 15.2722 18.3656L15.7575 19.2956C14.5811 19.8992 13.2779 20.2142 11.9557 20.2144V20.2136Z" fill="#00BFEC"/>
<path opacity="0.5" d="M18.99 10.0541C18.7143 9.06512 18.2293 8.14691 17.568 7.3616L18.243 6.8021C18.9844 7.68254 19.5279 8.71203 19.8367 9.82085L18.9907 10.0541H18.99ZM5.1225 16.4674C4.24353 15.1435 3.77566 13.5894 3.77775 12.0003C3.77775 9.77885 4.66275 7.70435 6.27 6.1586L6.8805 6.78635C6.17493 7.45872 5.6138 8.26783 5.23133 9.16428C4.84887 10.0607 4.65311 11.0257 4.656 12.0003C4.656 13.4246 5.0715 14.8031 5.856 15.9874L5.1225 16.4674Z" fill="#00BFEC"/>
</svg>

<svg width="24" height="24" viewBox="0 0 24 24" fill="none"><path fill="#00bfec" d="M11.956 17.348c-2.968 0-5.382-2.4-5.382-5.348s2.415-5.347 5.382-5.347c2.968 0 5.382 2.398 5.382 5.347s-2.415 5.348-5.382 5.348m0-9.648C9.57 7.7 7.628 9.629 7.628 12s1.942 4.3 4.328 4.3 4.327-1.929 4.327-4.3-1.94-4.3-4.327-4.3m3.769-1.811a7.23 7.23 0 0 0-3.77-1.055 7.25 7.25 0 0 0-3.499.899l-.513-.915a8.31 8.31 0 0 1 8.333.178zm1.57 12.382-.681-.8A7.14 7.14 0 0 0 19.168 12h1.054a8.18 8.18 0 0 1-2.926 6.27m-5.34 1.943a8.3 8.3 0 0 1-5.261-1.88l.672-.806a7.25 7.25 0 0 0 4.59 1.639c1.17 0 2.286-.27 3.316-.801l.486.93a8.3 8.3 0 0 1-3.802.918"/><path fill="#00bfec" d="M18.99 10.054a7.2 7.2 0 0 0-1.422-2.692l.675-.56a8 8 0 0 1 1.594 3.019zM5.123 16.467A8.06 8.06 0 0 1 3.777 12c0-2.221.885-4.296 2.492-5.841l.61.627A7.17 7.17 0 0 0 4.656 12a7.2 7.2 0 0 0 1.2 3.987z" opacity=".5"/></svg>
